src/assets/metronic/worbby/global/img/social-twitter.svg

<?xml version="1.0" encoding="UTF-8"?>
<svg width="40px" height="40px" viewBox="0 0 40 40" version="1.1" xmlns="http://www.w3.org/2000/svg" xmlns:xlink="http://www.w3.org/1999/xlink">
    <!-- Generator: Sketch 41.2 (35397) - http://www.bohemiancoding.com/sketch -->
    <title>social-twitter</title>
    <desc>Created with Sketch.</desc>
    <defs>
        <path d="M0,20 C0,8.954305 8.95187636,0 20,0 L20,0 C31.045695,0 40,8.95187636 40,20 L40,20 C40,31.045695 31.0481236,40 20,40 L20,40 C8.954305,40 0,31.0481236 0,20 L0,20 Z" id="path-1"></path>
        <mask id="mask-2" maskContentUnits="userSpaceOnUse" maskUnits="objectBoundingBox" x="0" y="0" width="40" height="40" fill="white">
            <use xlink:href="#path-1"></use>
        </mask>
    </defs>
    <g id="Desktop" stroke="none" stroke-width="1" fill="none" fill-rule="evenodd">
        <g id="Desktop-Needor-Worbbior-Profile" transform="translate(-969.000000, -1013.000000)">
            <g id="social-twitter" transform="translate(969.000000, 1013.000000)">
                <use id="Rectangle-4-Copy" stroke="#1E2225" mask="url(#mask-2)" stroke-width="2" xlink:href="#path-1"></use>
                <path d="M26.5303129,15.2133468 C27.2283093,14.776542 27.763891,14.0839232 28.0152471,13.2588473 C27.3617214,13.6643074 26.6395561,13.9575329 25.8690532,14.1162791 C25.2541976,13.4287159 24.3754182,13 23.4028637,13 C21.5370284,13 20.0250251,14.5824065 20.0250251,16.5338726 C20.0250251,16.8109201 20.053061,17.0808898 20.1110662,17.338726 C17.3036126,17.1911021 14.814221,15.7856421 13.1465703,13.6461072 C12.8555773,14.1698686 12.6892956,14.776542 12.6892956,15.4236603 C12.6892956,16.6491405 13.2857828,17.7310415 14.1925981,18.3660263 C13.6386481,18.3478261 13.1175676,18.1870576 12.6612597,17.9241658 L12.6612597,17.9676441 C12.6612597,19.6804853 13.8252316,21.1092012 15.3730048,21.4327604 C15.0887791,21.5156724 14.7910189,21.5571284 14.4816576,21.5571284 C14.2641379,21.5571284 14.051452,21.5358948 13.8465002,21.4944388 C14.275739,22.8978766 15.5238184,23.9211325 17.0029521,23.9484328 C15.8457475,24.8968655 14.3888492,25.4610718 12.8062729,25.4610718 C12.5336482,25.4610718 12.2639238,25.445905 12,25.4125379 C13.4955685,26.4145602 15.2714956,27 17.179868,27 C23.3960964,27 26.79327,21.6147624 26.79327,16.9443883 C26.79327,16.7906977 26.7913365,16.6380182 26.7845692,16.487361 C27.4448622,15.9888777 28.0191141,15.3660263 28.4705882,14.6572295 C27.8644335,14.9383215 27.2128413,15.1284125 26.5303129,15.2133468 Z" id="Shape" fill="#24A9E6"></path>
            </g>
        </g>
    </g>
</svg>

<svg xmlns="http://www.w3.org/2000/svg" width="40" height="40" xmlns:xlink="http://www.w3.org/1999/xlink"><defs><path id="a" d="M0 20C0 8.9543 8.952 0 20 0c11.0457 0 20 8.952 20 20 0 11.0457-8.952 20-20 20C8.9543 40 0 31.048 0 20z"/><mask id="b" width="40" height="40" x="0" y="0" fill="#fff"><use xlink:href="#a"/></mask></defs><g fill="none" fill-rule="evenodd"><use stroke="#1E2225" stroke-width="2" mask="url(#b)" xlink:href="#a"/><path fill="#24A9E6" d="M26.5303 15.2133c.698-.4368 1.2336-1.1294 1.485-1.9545-.6536.4055-1.3757.6987-2.1462.8575C25.2543 13.4287 24.3755 13 23.403 13c-1.866 0-3.378 1.5824-3.378 3.534 0 .277.028.547.086.8047-2.8074-.1476-5.2968-1.553-6.9644-3.6926-.291.524-.4573 1.1305-.4573 1.7777 0 1.2254.5965 2.3073 1.5033 2.9423-.554-.0182-1.075-.179-1.5313-.4418v.0434c0 1.713 1.164 3.1416 2.7117 3.4652-.2842.083-.582.1243-.8913.1243-.2176 0-.4302-.021-.6352-.0626.4292 1.4035 1.6773 2.4267 3.1565 2.454-1.1573.9485-2.6142 1.5127-4.1967 1.5127-.2727 0-.5424-.015-.8063-.0485C13.4956 26.4145 15.2715 27 17.18 27c6.216 0 9.6133-5.3852 9.6133-10.0556 0-.1537-.002-.3064-.0087-.457.6603-.4985 1.2345-1.1214 1.686-1.8302-.6062.281-1.2578.4712-1.9403.556z"/></g></svg>
